X:435
T:Bonawe Highlanders, The
R:jig
H:Originally a Scottish highland pipe march with four parts
Z:hn-jig-435
M:6/8
L:1/8
K:A
Ace ecA | edc cBc | Ace ecA | BAB c2A |
Ace ecA | cBA a2e | faf ecA | BAB c2A :|
|: a3 a2e | faf ecA | a3 a2e | fag f2e |
efa fec | ABA a2e | faf ecA | BAB c2A :|

